brandFactory_export/3.Masa/Proteger cuidar _3Masa.svg

<?xml version="1.0" encoding="UTF-8"?>
<svg width="24px" height="24px" viewBox="0 0 24 24" version="1.1" xmlns="http://www.w3.org/2000/svg" xmlns:xlink="http://www.w3.org/1999/xlink">
    <title>3.Masa/Proteger cuidar _3Masa</title>
    <g id="Symbols" stroke="none" stroke-width="1" fill="none" fill-rule="evenodd">
        <g id="3.Masa/Proteger-cuidar-_3Masa" fill="#5CB615" fill-rule="nonzero">
            <path d="M21.9092437,15.8991597 C21.9092437,15.8857143 22.2084034,11.9294118 22.1747899,10.6420168 C22.1714286,10.5344538 22.1613445,10.4806723 22.1512605,10.4537815 C22.1411765,10.4571429 22.1042017,10.4436975 22.0336134,10.4436975 C21.8991597,10.4470588 21.8218487,10.507563 21.8016807,10.605042 L21.1798319,13.6369748 C21.1731092,13.6705882 21.1529412,13.6907563 21.1428571,13.7243697 C21.1394958,14.0067227 21.0789916,14.2857143 20.9310924,14.5344538 L20.9277311,14.5378151 L20.9277311,14.5411765 L19.0823529,17.6638655 C18.9478992,17.8957983 18.7092437,18.0235294 18.4605042,18.0235294 C18.3327731,18.0235294 18.2084034,17.989916 18.0907563,17.9193277 C17.7478992,17.7109244 17.6336134,17.2638655 17.8386555,16.9176471 L19.6840336,13.7915966 L19.687395,13.7882353 L19.687395,13.7848739 C19.7277311,13.7176471 19.6840336,13.5462185 19.6168067,13.502521 C19.6168067,13.502521 19.4756303,13.4218487 19.4218487,13.512605 L19.3277311,13.6739496 C19.0184874,14.2252101 18.3764706,15.3714286 17.0689076,16.0470588 C17.0689076,16.0470588 16.7663866,16.2285714 16.2252101,16.9310924 C15.7344538,17.5731092 15.3243697,18.2890756 15.0016807,19.0588235 L14.897479,19.307563 L18.3932773,19.307563 C18.4369748,19.307563 18.4806723,19.3176471 18.5277311,19.3210084 L20.6789916,17.4823529 C20.8638655,17.3243697 21.0588235,17.1731092 21.2537815,17.0285714 C21.3983193,16.9210084 21.5361345,16.7529412 21.6672269,16.5310924 C21.8084034,16.302521 21.8890756,16.0840336 21.9092437,15.8991597 L21.9092437,15.8991597 Z M23.6201681,10.6016807 C23.6571429,11.9630252 23.3613445,15.8689076 23.3478992,16.0369748 C23.3008403,16.4571429 23.1563025,16.8672269 22.9109244,17.2806723 C22.6823529,17.6638655 22.4168067,17.9731092 22.1243697,18.194958 C21.9495798,18.3260504 21.7815126,18.4537815 21.6168067,18.5915966 L19.8420168,20.1109244 C20.0134454,20.3764706 20.1142857,20.6957983 20.1142857,21.0352941 L20.1142857,21.8890756 C20.1142857,22.8436975 19.3445378,23.6168067 18.3966387,23.6168067 L14.2487395,23.6168067 C13.3042017,23.6168067 12.5310924,22.8436975 12.5310924,21.8890756 L12.5310924,21.0352941 C12.5310924,20.497479 12.7798319,20.0268908 13.1630252,19.707563 L13.6705882,18.4907563 C14.0403361,17.6067227 14.5176471,16.7798319 15.0857143,16.0369748 C15.8319328,15.0621849 16.3092437,14.7966387 16.4403361,14.7361345 C17.3310924,14.2722689 17.8117647,13.4151261 18.0705882,12.9546218 L18.1915966,12.7428571 C18.5815126,12.1109244 19.3310924,11.8655462 20.0201681,12.0941176 L20.3865546,10.302521 C20.5478992,9.5092437 21.2537815,8.97815126 22.0302521,8.97478992 C23.0487395,9.03865546 23.5966387,9.6302521 23.6201681,10.6016807 L23.6201681,10.6016807 Z M5.22689076,19.3109244 L8.72268908,19.3109244 L8.61848739,19.0621849 C8.29915966,18.292437 7.88571429,17.5764706 7.39495798,16.9344538 C6.85378151,16.2319328 6.5512605,16.0504202 6.54789916,16.0470588 C5.24705882,15.3714286 4.60168067,14.2252101 4.29579832,13.6739496 L4.20168067,13.5092437 C4.14789916,13.4184874 4.00672269,13.4991597 4.00336134,13.502521 C3.93613445,13.5428571 3.89243697,13.7142857 3.93277311,13.7815126 L3.93277311,13.7848739 L3.93613445,13.7882353 L5.78151261,16.9142857 C5.98655462,17.2605042 5.87563025,17.707563 5.52941176,17.912605 C5.41512605,17.9831933 5.28403361,18.0168067 5.16302521,18.0168067 C4.91764706,18.0168067 4.67563025,17.8890756 4.54117647,17.6605042 L2.69579832,14.5344538 L2.69579832,14.5310924 L2.69243697,14.5277311 C2.54789916,14.2789916 2.48067227,14 2.48067227,13.7176471 C2.47058824,13.687395 2.45042017,13.6638655 2.44369748,13.6302521 L1.82184874,10.5983193 C1.80168067,10.5008403 1.7210084,10.4403361 1.6302521,10.4336134 C1.52941176,10.4403361 1.48235294,10.4470588 1.46218487,10.4537815 C1.46554622,10.4672269 1.45210084,10.5210084 1.4487395,10.6319328 C1.41512605,11.9193277 1.71428571,15.8756303 1.71764706,15.9159664 C1.73781513,16.0773109 1.81848739,16.292437 1.95630252,16.5243697 C2.08739496,16.7462185 2.22857143,16.9142857 2.37310924,17.0218487 C2.56470588,17.1663866 2.75966387,17.3142857 2.94453782,17.4722689 L5.09579832,19.3109244 C5.1394958,19.3210084 5.17983193,19.3109244 5.22689076,19.3109244 L5.22689076,19.3109244 Z M9.94957983,18.4941176 L10.4605042,19.7109244 C10.8403361,20.0268908 11.0890756,20.5042017 11.0890756,21.0386555 L11.0890756,21.892437 C11.0890756,22.8470588 10.3193277,23.6235294 9.37478992,23.6235294 L5.22689076,23.6235294 C4.28235294,23.6235294 3.51260504,22.8470588 3.51260504,21.892437 L3.51260504,21.0386555 C3.51260504,20.6991597 3.61344538,20.3831933 3.78151261,20.1176471 L2.00672269,18.5983193 C1.84201681,18.4571429 1.67058824,18.3294118 1.50252101,18.1983193 C1.20672269,17.9731092 0.941176471,17.6672269 0.712605042,17.2840336 C0.467226891,16.8672269 0.322689076,16.4571429 0.278991597,16.0638655 C0.265546218,15.8722689 -0.0302521008,11.9663866 0.00336134454,10.6016807 C0.0268907563,9.62689076 0.578151261,9.03529412 1.5092437,8.98487395 C2.38655462,8.99159664 3.07563025,9.51596639 3.24033613,10.3092437 L3.60672269,12.1008403 C4.29579832,11.8689076 5.0487395,12.1176471 5.43529412,12.7462185 L5.55630252,12.9579832 C5.81512605,13.4184874 6.29579832,14.2756303 7.21680672,14.7529412 C7.31764706,14.8 7.79495798,15.0689076 8.54117647,16.0436975 C9.10588235,16.7831933 9.58319328,17.610084 9.94957983,18.4941176 L9.94957983,18.4941176 Z M15.0957983,5.97647059 C15.3781513,5.6907563 15.3781513,5.22689076 15.0957983,4.94453782 C14.8134454,4.65882353 14.3529412,4.65882353 14.0705882,4.94453782 L10.6453782,8.40336134 L9.38823529,7.13277311 C9.10588235,6.84705882 8.64537815,6.84705882 8.36638655,7.13277311 C8.08403361,7.41848739 8.08403361,7.88235294 8.36638655,8.16470588 L10.1344538,9.94957983 C10.2756303,10.0907563 10.4605042,10.1647059 10.6487395,10.1647059 C10.8336134,10.1647059 11.0184874,10.0907563 11.1596639,9.94957983 L15.0957983,5.97647059 L15.0957983,5.97647059 Z M17.9630252,9.43193277 C17.492437,12.1579832 12.594958,14.5613445 12.0369748,14.8268908 C11.9394958,14.8739496 11.8319328,14.897479 11.7277311,14.897479 C11.6201681,14.897479 11.5159664,14.8739496 11.4184874,14.8268908 C10.8605042,14.5613445 5.9697479,12.1579832 5.50252101,9.43193277 C5.14957983,7.41512605 5.16302521,2.77310924 5.16638655,2.57815126 C5.16638655,2.35294118 5.27058824,2.14453782 5.44537815,2.00336134 C5.62016807,1.86554622 5.8487395,1.81848739 6.06386555,1.86890756 C7.1092437,2.0302521 7.65042017,1.6605042 8.41344538,1.15294118 C9.17983193,0.638655462 10.1344538,0 11.7277311,0 L11.7344538,0 C13.3243697,0 14.2756303,0.642016807 15.0420168,1.15294118 C15.805042,1.6605042 16.3563025,2.03361345 17.4386555,1.86218487 C17.6504202,1.82857143 17.8689076,1.88907563 18.0302521,2.02352941 C18.1915966,2.16134454 18.292437,2.36302521 18.292437,2.57478992 C18.2957983,2.77310924 18.3092437,7.40840336 17.9630252,9.43193277 Z" id="Proteger-cuidar-_3Masa"></path>
        </g>
    </g>
</svg>

<svg width="24" height="24" viewBox="0 0 24 24" xmlns="http://www.w3.org/2000/svg"><path d="M21.91 15.9c0-.014.298-3.97.265-5.258a.653.653 0 00-.024-.188c-.01.003-.047-.01-.117-.01-.135.003-.212.064-.232.161l-.622 3.032c-.007.034-.027.054-.037.087a1.603 1.603 0 01-.212.81l-.003.004v.003l-1.846 3.123a.715.715 0 01-.991.255.735.735 0 01-.252-1.001l1.845-3.126.003-.004v-.003c.04-.067-.003-.239-.07-.282 0 0-.141-.081-.195.01l-.094.16c-.31.552-.952 1.698-2.26 2.374 0 0-.302.182-.843.884a9.63 9.63 0 00-1.223 2.128l-.105.249h3.496c.044 0 .088.01.135.013l2.151-1.839c.185-.158.38-.309.575-.453.144-.108.282-.276.413-.498.141-.228.222-.447.242-.632zm1.71-5.298c.037 1.361-.259 5.267-.272 5.435-.047.42-.192.83-.437 1.244a3.177 3.177 0 01-.787.914c-.174.131-.342.259-.507.397l-1.775 1.519c.171.265.272.585.272.924v.854c0 .955-.77 1.728-1.717 1.728h-4.148a1.725 1.725 0 01-1.718-1.728v-.854c0-.538.249-1.008.632-1.327l.508-1.217c.37-.884.847-1.711 1.415-2.454.746-.975 1.223-1.24 1.354-1.3.891-.465 1.372-1.322 1.63-1.782l.122-.212c.39-.632 1.14-.877 1.828-.649l.367-1.791c.16-.794.867-1.325 1.643-1.328 1.019.064 1.567.655 1.59 1.627zM5.227 19.31h3.496l-.105-.249a9.499 9.499 0 00-1.223-2.128c-.541-.702-.844-.884-.847-.887-1.3-.676-1.946-1.822-2.252-2.373l-.094-.165c-.054-.09-.195-.01-.199-.006-.067.04-.11.211-.07.279v.003l.003.003 1.846 3.126a.728.728 0 01-.619 1.103.723.723 0 01-.622-.356l-1.845-3.127v-.003l-.004-.003a1.603 1.603 0 01-.211-.81c-.01-.03-.03-.054-.037-.088l-.622-3.032a.207.207 0 00-.192-.164.87.87 0 00-.168.02c.004.013-.01.067-.013.178-.034 1.287.265 5.244.269 5.284.02.161.1.376.238.608.131.222.273.39.417.498.192.144.387.292.572.45l2.15 1.839c.044.01.085 0 .132 0zm4.723-.817l.51 1.217c.38.316.63.793.63 1.328v.853c0 .955-.77 1.732-1.715 1.732H5.227a1.725 1.725 0 01-1.714-1.732v-.853c0-.34.1-.656.269-.921l-1.775-1.52c-.165-.14-.336-.269-.504-.4a3.179 3.179 0 01-.79-.914c-.246-.417-.39-.827-.434-1.22-.013-.192-.31-4.098-.276-5.462.024-.975.575-1.567 1.506-1.617.878.007 1.567.531 1.731 1.324l.367 1.792c.689-.232 1.442.017 1.828.645l.121.212c.26.46.74 1.318 1.66 1.795.102.047.579.316 1.325 1.29a10.96 10.96 0 011.409 2.451zm5.146-12.518a.734.734 0 000-1.031.72.72 0 00-1.025 0l-3.426 3.458-1.257-1.27a.716.716 0 00-1.022 0 .734.734 0 000 1.032l1.768 1.785a.726.726 0 00.515.215c.185 0 .37-.074.51-.215l3.937-3.974zm2.867 3.456c-.47 2.726-5.368 5.13-5.926 5.395a.717.717 0 01-.619 0c-.557-.266-5.448-2.669-5.915-5.395-.353-2.017-.34-6.659-.337-6.854a.73.73 0 01.897-.71c1.046.162 1.587-.207 2.35-.715C9.18.639 10.134 0 11.728 0h.006c1.59 0 2.542.642 3.308 1.153.763.508 1.314.88 2.397.71a.733.733 0 01.854.713c.003.197.016 4.832-.33 6.856z" fill="#5CB615" fill-rule="nonzero"/></svg>
